Numix-Circle/48x48/apps/genymotion.svg

<?xml version="1.0" encoding="UTF-8" standalone="no"?>
<svg
   xmlns:dc="http://purl.org/dc/elements/1.1/"
   xmlns:cc="http://creativecommons.org/ns#"
   xmlns:rdf="http://www.w3.org/1999/02/22-rdf-syntax-ns#"
   xmlns:svg="http://www.w3.org/2000/svg"
   xmlns="http://www.w3.org/2000/svg"
   xmlns:xlink="http://www.w3.org/1999/xlink"
   xmlns:sodipodi="http://sodipodi.sourceforge.net/DTD/sodipodi-0.dtd"
   xmlns:inkscape="http://www.inkscape.org/namespaces/inkscape"
   width="48"
   viewBox="0 0 13.546667 13.546667"
   height="48"
   id="svg2"
   version="1.1"
   inkscape:version="0.91 r13725"
   sodipodi:docname="genymotion.svg">
  <metadata
     id="metadata331">
    <rdf:RDF>
      <cc:Work
         rdf:about="">
        <dc:format>image/svg+xml</dc:format>
        <dc:type
           rdf:resource="http://purl.org/dc/dcmitype/StillImage" />
        <dc:title />
      </cc:Work>
    </rdf:RDF>
  </metadata>
  <sodipodi:namedview
     pagecolor="#ffffff"
     bordercolor="#666666"
     borderopacity="1"
     objecttolerance="10"
     gridtolerance="10"
     guidetolerance="10"
     inkscape:pageopacity="0"
     inkscape:pageshadow="2"
     inkscape:window-width="1920"
     inkscape:window-height="1052"
     id="namedview329"
     showgrid="true"
     inkscape:zoom="12.623936"
     inkscape:cx="5.5570643"
     inkscape:cy="23.217143"
     inkscape:window-x="0"
     inkscape:window-y="28"
     inkscape:window-maximized="1"
     inkscape:current-layer="layer2">
    <inkscape:grid
       type="xygrid"
       id="grid3308" />
  </sodipodi:namedview>
  <defs
     id="defs4">
    <linearGradient
       id="linearGradient4081">
      <stop
         style="stop-color:#e61a5f;stop-opacity:1;"
         offset="0"
         id="stop4083" />
      <stop
         style="stop-color:#fd3f7f;stop-opacity:1;"
         offset="1"
         id="stop4085" />
    </linearGradient>
    <radialGradient
       xlink:href="#0-6"
       id="6-9"
       cx="-3"
       cy="24"
       r="10"
       gradientUnits="userSpaceOnUse" />
    <linearGradient
       id="0-6">
      <stop
         stop-color="#91b0c7"
         id="stop7-0" />
      <stop
         offset="1"
         stop-color="#91b0c7"
         stop-opacity="0"
         id="stop9-3" />
    </linearGradient>
    <radialGradient
       r="10"
       cy="24"
       cx="-3"
       gradientUnits="userSpaceOnUse"
       id="radialGradient3922"
       xlink:href="#0-6"
       inkscape:collect="always" />
    <linearGradient
       inkscape:collect="always"
       xlink:href="#linearGradient4081"
       id="linearGradient4087"
       x1="-25.499998"
       y1="15"
       x2="-25.499998"
       y2="11"
       gradientUnits="userSpaceOnUse" />
  </defs>
  <g
     inkscape:groupmode="layer"
     id="layer1"
     inkscape:label="Shadow"
     sodipodi:insensitive="true">
    <path
       style="opacity:0.05;fill:#000000;fill-opacity:1;stroke:none"
       d="M 25,2 C 12.297451,2 2,12.297451 2,25 2,31.367153 4.6007106,37.116628 8.78125,41.28125 12.865755,44.99361 18.29568,47.25 24.25,47.25 c 12.702549,0 23,-10.297451 23,-23 0,-5.95432 -2.25639,-11.384245 -5.96875,-15.46875 C 37.116628,4.6007105 31.367153,2 25,2 z M 41.28125,8.78125 C 45.135604,12.894061 47.5,18.418655 47.5,24.5 c 0,12.702549 -10.297451,23 -23,23 C 18.418655,47.5 12.894061,45.135604 8.78125,41.28125 12.940939,45.4251 18.664604,48 25,48 37.702549,48 48,37.702549 48,25 48,18.664604 45.4251,12.940939 41.28125,8.78125 z"
       transform="scale(0.28222223,0.28222223)"
       id="path3978"
       inkscape:connector-curvature="0" />
    <path
       style="opacity:0.1;fill:#000000;fill-opacity:1;stroke:none"
       d="M 41.28125,8.78125 C 44.99361,12.865755 47.25,18.29568 47.25,24.25 c 0,12.702549 -10.297451,23 -23,23 -5.95432,0 -11.384245,-2.25639 -15.46875,-5.96875 C 12.894061,45.135604 18.418655,47.5 24.5,47.5 c 12.702549,0 23,-10.297451 23,-23 0,-6.081345 -2.364396,-11.605939 -6.21875,-15.71875 z"
       transform="scale(0.28222223,0.28222223)"
       id="path3976"
       inkscape:connector-curvature="0" />
    <path
       transform="matrix(4.3274074,0,0,3.2455556,117.19278,-35.348334)"
       d="m -24,13 a 1.5,2 0 1 1 -3,0 1.5,2 0 1 1 3,0 z"
       sodipodi:ry="2"
       sodipodi:rx="1.5"
       sodipodi:cy="13"
       sodipodi:cx="-25.5"
       id="path3952"
       style="opacity:0.2;fill:#000000;fill-opacity:1;stroke:none"
       sodipodi:type="arc" />
  </g>
  <g
     inkscape:groupmode="layer"
     id="layer2"
     inkscape:label="Base">
    <path
       sodipodi:type="arc"
       style="opacity:1;fill:url(#linearGradient4087);fill-opacity:1;stroke:none"
       id="path3942"
       sodipodi:cx="-25.5"
       sodipodi:cy="13"
       sodipodi:rx="1.5"
       sodipodi:ry="2"
       d="m -24,13 a 1.5,2 0 1 1 -3,0 1.5,2 0 1 1 3,0 z"
       transform="matrix(4.3274075,0,0,3.2455556,117.12222,-35.418889)" />
    <path
       style="opacity:0.1;fill:#000000;fill-opacity:1;stroke:none"
       d="M 40.03125 7.53125 C 43.74361 11.615755 46 17.04568 46 23 C 46 35.702549 35.702549 46 23 46 C 17.04568 46 11.615755 43.74361 7.53125 40.03125 C 11.709416 44.322508 17.537578 47 24 47 C 36.702549 47 47 36.702549 47 24 C 47 17.537578 44.322508 11.709416 40.03125 7.53125 z "
       id="path4027"
       transform="scale(0.28222223,0.28222223)" />
    <use
       id="use102"
       xlink:href="#7"
       transform="matrix(0.39511112,0,0,0.39511112,7.9586669,-2.4271114)"
       style="opacity:0.2"
       x="0"
       y="0"
       width="744.09448"
       height="1052.3622" />
    <use
       id="use104-7"
       xlink:href="#7"
       transform="matrix(0.39511112,0,0,0.39511112,7.9586669,-2.7093336)"
       style="fill:#f9f9f9"
       x="0"
       y="0"
       width="744.09448"
       height="1052.3622" />
    <use
       id="use108-3"
       xlink:href="#7"
       transform="matrix(0.31044445,0,0,0.31044445,7.7046669,-0.67733354)"
       style="fill:#355464"
       x="0"
       y="0"
       width="744.09448"
       height="1052.3622" />
    <use
       id="use110"
       xlink:href="#7"
       transform="matrix(0.22577778,0,0,0.22577778,7.4506669,1.3546665)"
       style="fill:#566d80"
       x="0"
       y="0"
       width="744.09448"
       height="1052.3622" />
    <use
       id="use112"
       xlink:href="#7"
       transform="matrix(0.16933334,0,0,0.16933334,7.2813335,2.7093332)"
       style="fill:#355464"
       x="0"
       y="0"
       width="744.09448"
       height="1052.3622" />
    <use
       id="use114"
       xlink:href="#7"
       transform="matrix(0.05644445,0,0,0.05644445,6.9426669,4.5719999)"
       style="fill:url(#6-9)"
       x="0"
       y="0"
       width="744.09448"
       height="1052.3622" />
    <use
       id="use116"
       xlink:href="#7"
       transform="matrix(0.02822222,0,0,0.02822222,6.8580002,6.6604444)"
       style="fill:url(#radialGradient3922)"
       x="0"
       y="0"
       width="744.09448"
       height="1052.3622" />
  </g>
  <g
     inkscape:groupmode="layer"
     id="layer3"
     inkscape:label="Symbol">
    <path
       inkscape:connector-curvature="0"
       id="path4045"
       d="m 4.5155557,5.6444446 c -0.9352021,0 -1.6933334,0.7581313 -1.6933334,1.6933334 0,0.9352021 0.7581313,1.6933334 1.6933334,1.6933334 0.9352021,0 1.6933334,-0.7581313 1.6933334,-1.6933334 0,-0.9352021 -0.7581313,-1.6933334 -1.6933334,-1.6933334 z m 0,0.5644445 c 0.6234681,0 1.1288889,0.5054208 1.1288889,1.1288889 0,0.6234681 -0.5054208,1.1288889 -1.1288889,1.1288889 -0.6234681,0 -1.1288889,-0.5054208 -1.1288889,-1.1288889 0,-0.6234681 0.5054208,-1.1288889 1.1288889,-1.1288889 z"
       style="opacity:0.1;fill:#000000;fill-opacity:1;stroke:none" />
    <path
       inkscape:connector-curvature="0"
       id="path4047"
       d="m 9.0311114,4.7977779 c -1.2469363,0 -2.2577779,1.0108416 -2.2577779,2.2577779 0,1.2469363 1.0108416,2.2577778 2.2577779,2.2577778 1.2469366,0 2.2577776,-1.0108415 2.2577776,-2.2577778 0,-1.2469363 -1.010841,-2.2577779 -2.2577776,-2.2577779 z m 0,0.5644445 c 0.935202,0 1.6933336,0.7581313 1.6933336,1.6933334 0,0.9352021 -0.7581316,1.6933334 -1.6933336,1.6933334 -0.9352021,0 -1.6933334,-0.7581313 -1.6933334,-1.6933334 0,-0.9352021 0.7581313,-1.6933334 1.6933334,-1.6933334 z"
       style="opacity:0.1;fill:#000000;fill-opacity:1;stroke:none" />
    <path
       style="fill:#f9f9f9;fill-opacity:1;stroke:none"
       d="m 4.2333335,5.3622223 c -0.9352021,0 -1.6933334,0.7581313 -1.6933334,1.6933334 0,0.9352021 0.7581313,1.6933334 1.6933334,1.6933334 0.9352021,0 1.6933334,-0.7581313 1.6933334,-1.6933334 0,-0.9352021 -0.7581313,-1.6933334 -1.6933334,-1.6933334 z m 0,0.5644445 c 0.6234681,0 1.1288889,0.5054208 1.1288889,1.1288889 0,0.6234681 -0.5054208,1.1288889 -1.1288889,1.1288889 -0.6234681,0 -1.1288889,-0.5054208 -1.1288889,-1.1288889 0,-0.6234681 0.5054208,-1.1288889 1.1288889,-1.1288889 z"
       id="path4030"
       inkscape:connector-curvature="0" />
    <path
       style="fill:#f9f9f9;fill-opacity:1;stroke:none"
       d="m 8.7488892,4.5155556 c -1.2469363,0 -2.2577779,1.0108416 -2.2577779,2.2577779 0,1.2469363 1.0108416,2.2577778 2.2577779,2.2577778 1.2469362,0 2.2577778,-1.0108415 2.2577778,-2.2577778 0,-1.2469363 -1.0108416,-2.2577779 -2.2577778,-2.2577779 z m 0,0.5644445 c 0.935202,0 1.6933338,0.7581313 1.6933338,1.6933334 0,0.9352021 -0.7581318,1.6933334 -1.6933338,1.6933334 -0.9352021,0 -1.6933334,-0.7581313 -1.6933334,-1.6933334 0,-0.9352021 0.7581313,-1.6933334 1.6933334,-1.6933334 z"
       id="path4040"
       inkscape:connector-curvature="0" />
  </g>
</svg>

<svg xmlns="http://www.w3.org/2000/svg" width="48" viewBox="0 0 13.546667 13.546667" height="48">
 <defs>
  <linearGradient id="linearGradient4087" y1="15" x2="0" y2="11" gradientUnits="userSpaceOnUse">
   <stop style="stop-color:#e61a5f;stop-opacity:1"/>
   <stop offset="1" style="stop-color:#fd3f7f;stop-opacity:1"/>
  </linearGradient>
 </defs>
 <g>
  <path d="m 25 2 c -12.703 0 -23 10.297 -23 23 0 6.367 2.601 12.12 6.781 16.281 4.085 3.712 9.514 5.969 15.469 5.969 c 12.703 0 23 -10.297 23 -23 0 -5.954 -2.256 -11.384 -5.969 -15.469 c -4.165 -4.181 -9.914 -6.781 -16.281 -6.781 z m 16.281 6.781 c 3.854 4.113 6.219 9.637 6.219 15.719 c 0 12.703 -10.297 23 -23 23 c -6.081 0 -11.606 -2.364 -15.719 -6.219 4.16 4.144 9.883 6.719 16.219 6.719 12.703 0 23 -10.297 23 -23 0 -6.335 -2.575 -12.06 -6.719 -16.219 z" transform="scale(0.28222223,0.28222223)" style="fill:#000;opacity:0.05;fill-opacity:1;stroke:none"/>
  <path d="m 41.28 8.781 c 3.712 4.085 5.969 9.514 5.969 15.469 c 0 12.703 -10.297 23 -23 23 -5.954 0 -11.384 -2.256 -15.469 -5.969 c 4.113 3.854 9.637 6.219 15.719 6.219 c 12.703 0 23 -10.297 23 -23 0 -6.081 -2.364 -11.606 -6.219 -15.719 z" transform="scale(0.28222223,0.28222223)" style="fill:#000;opacity:0.1;fill-opacity:1;stroke:none"/>
  <path transform="matrix(4.3274074,0,0,3.2455556,117.19278,-35.348334)" d="m -24 13 a 1.5 2 0 1 1 -3 0 1.5 2 0 1 1 3 0 z" style="fill:#000;opacity:0.2;fill-opacity:1;stroke:none"/>
 </g>
 <g>
  <path d="m -24 13 a 1.5 2 0 1 1 -3 0 1.5 2 0 1 1 3 0 z" transform="matrix(4.3274075,0,0,3.2455556,117.12222,-35.418889)" style="fill:url(#linearGradient4087);opacity:1;fill-opacity:1;stroke:none"/>
  <path d="m 40.03 7.531 c 3.712 4.085 5.969 9.514 5.969 15.469 c 0 12.703 -10.297 23 -23 23 c -5.954 0 -11.384 -2.256 -15.469 -5.969 c 4.178 4.291 10.01 6.969 16.469 6.969 c 12.703 0 23 -10.297 23 -23 c 0 -6.462 -2.677 -12.291 -6.969 -16.469 z" transform="scale(0.28222223,0.28222223)" style="fill:#000;opacity:0.1;fill-opacity:1;stroke:none"/>
 </g>
 <g>
  <path d="m 4.516 5.644 c -0.935 0 -1.693 0.758 -1.693 1.693 0 0.935 0.758 1.693 1.693 1.693 0.935 0 1.693 -0.758 1.693 -1.693 0 -0.935 -0.758 -1.693 -1.693 -1.693 z m 0 0.564 c 0.623 0 1.129 0.505 1.129 1.129 0 0.623 -0.505 1.129 -1.129 1.129 -0.623 0 -1.129 -0.505 -1.129 -1.129 0 -0.623 0.505 -1.129 1.129 -1.129 z" style="fill:#000;opacity:0.1;fill-opacity:1;stroke:none"/>
  <path d="m 9.03 4.798 c -1.247 0 -2.258 1.01 -2.258 2.258 0 1.247 1.01 2.258 2.258 2.258 1.247 0 2.258 -1.01 2.258 -2.258 0 -1.247 -1.01 -2.258 -2.258 -2.258 z m 0 0.564 c 0.935 0 1.693 0.758 1.693 1.693 0 0.935 -0.758 1.693 -1.693 1.693 -0.935 0 -1.693 -0.758 -1.693 -1.693 0 -0.935 0.758 -1.693 1.693 -1.693 z" style="fill:#000;opacity:0.1;fill-opacity:1;stroke:none"/>
  <path d="m 4.233 5.362 c -0.935 0 -1.693 0.758 -1.693 1.693 0 0.935 0.758 1.693 1.693 1.693 0.935 0 1.693 -0.758 1.693 -1.693 0 -0.935 -0.758 -1.693 -1.693 -1.693 z m 0 0.564 c 0.623 0 1.129 0.505 1.129 1.129 0 0.623 -0.505 1.129 -1.129 1.129 -0.623 0 -1.129 -0.505 -1.129 -1.129 0 -0.623 0.505 -1.129 1.129 -1.129 z" style="fill:#f9f9f9;fill-opacity:1;stroke:none"/>
  <path d="m 8.749 4.516 c -1.247 0 -2.258 1.01 -2.258 2.258 0 1.247 1.01 2.258 2.258 2.258 1.247 0 2.258 -1.01 2.258 -2.258 0 -1.247 -1.01 -2.258 -2.258 -2.258 z m 0 0.564 c 0.935 0 1.693 0.758 1.693 1.693 0 0.935 -0.758 1.693 -1.693 1.693 -0.935 0 -1.693 -0.758 -1.693 -1.693 0 -0.935 0.758 -1.693 1.693 -1.693 z" style="fill:#f9f9f9;fill-opacity:1;stroke:none"/>
 </g>
</svg>
